src/components/00-materials/images-raw/Mail.svg

<svg width="96" height="96" viewBox="0 0 96 96" fill="none" xmlns="http://www.w3.org/2000/svg">
<path d="M77 26H19C16.7909 26 15 27.7909 15 30V66C15 68.2091 16.7909 70 19 70H77C79.2091 70 81 68.2091 81 66V30C81 27.7909 79.2091 26 77 26Z" stroke="#00008F" stroke-width="2" stroke-linecap="round" stroke-linejoin="round"/>
<path d="M15 30L48 57L81 30M16.17 68.83L36.95 47.96M79.83 68.83L59.05 47.96" stroke="#00008F" stroke-width="2" stroke-linecap="round" stroke-linejoin="round"/>
</svg>

<svg width="96" height="96" viewBox="0 0 96 96" fill="none" xmlns="http://www.w3.org/2000/svg"><path d="M77 26H19a4 4 0 00-4 4v36a4 4 0 004 4h58a4 4 0 004-4V30a4 4 0 00-4-4z" stroke="#00008F" stroke-width="2" stroke-linecap="round" stroke-linejoin="round"/><path d="M15 30l33 27 33-27M16.17 68.83l20.78-20.87m42.88 20.87L59.05 47.96" stroke="#00008F" stroke-width="2" stroke-linecap="round" stroke-linejoin="round"/></svg>
